svgs/light/building.svg

<svg xmlns="http://www.w3.org/2000/svg" viewBox="0 0 384 512"><!-- Font Awesome Pro 6.0.0-alpha2 by @fontawesome - https://fontawesome.com License - https://fontawesome.com/license (Commercial License) --><path d="M176 296V248C176 234.744 165.254 224 152 224H104C90.746 224 80 234.744 80 248V296C80 309.254 90.746 320 104 320H152C165.254 320 176 309.254 176 296ZM144 288H112V256H144V288ZM104 192H152C165.254 192 176 181.254 176 168V120C176 106.744 165.254 96 152 96H104C90.746 96 80 106.744 80 120V168C80 181.254 90.746 192 104 192ZM112 128H144V160H112V128ZM192 384C156.717 384.051 128 412.475 128 447.861V495.953C128 504.777 135.199 512 144 512S160 504.777 160 495.953V447.861C160 430.258 174.451 416.604 192 416.561C209.549 416.604 224 430.258 224 447.861V495.953C224 504.777 231.199 512 240 512S256 504.777 256 495.953V447.861C256 412.475 227.283 384.051 192 384ZM280 96H232C218.746 96 208 106.744 208 120V168C208 181.254 218.746 192 232 192H280C293.254 192 304 181.254 304 168V120C304 106.744 293.254 96 280 96ZM272 160H240V128H272V160ZM320 0H64C28.654 0 0 28.652 0 64V496C0 504.836 7.164 512 16 512S32 504.836 32 496V64C32 46.326 46.326 32 64 32H320C337.674 32 352 46.326 352 64V496C352 504.836 359.164 512 368 512S384 504.836 384 496V64C384 28.652 355.346 0 320 0ZM280 224H232C218.746 224 208 234.744 208 248V296C208 309.254 218.746 320 232 320H280C293.254 320 304 309.254 304 296V248C304 234.744 293.254 224 280 224ZM272 288H240V256H272V288Z"/></svg>

<svg xmlns="http://www.w3.org/2000/svg" viewBox="0 0 384 512"><!--! Font Awesome Pro 6.0.0-alpha3 by @fontawesome - https://fontawesome.com License - https://fontawesome.com/license (Commercial License) --><path d="M176 296v-48C176 234.7 165.3 224 152 224h-48C90.75 224 80 234.7 80 248v48C80 309.3 90.75 320 104 320h48C165.3 320 176 309.3 176 296zM144 288h-32V256h32V288zM104 192h48C165.3 192 176 181.3 176 168v-48C176 106.7 165.3 96 152 96h-48C90.75 96 80 106.7 80 120v48C80 181.3 90.75 192 104 192zM112 128h32v32h-32V128zM192 384c-35.28 .0508-64 28.47-64 63.85v48.09c0 8.824 7.199 16.05 16 16.05S160 504.8 160 495.1v-48.09c0-17.6 14.45-31.26 32-31.3c17.55 .043 32 13.7 32 31.3v48.09c0 8.824 7.199 16.05 16 16.05s16-7.23 16-16.05v-48.09C256 412.5 227.3 384.1 192 384zM280 96h-48c-13.25 0-24 10.74-24 24v48C208 181.3 218.7 192 232 192h48c13.25 0 24-10.75 24-24v-48C304 106.7 293.3 96 280 96zM272 160h-32v-32h32V160zM320 0H64C28.65 0 0 28.65 0 64v432C0 504.8 7.164 512 16 512S32 504.8 32 496V64c0-17.67 14.33-32 32-32h256c17.67 0 32 14.33 32 32v432c0 8.836 7.164 16 16 16s16-7.164 16-16V64C384 28.65 355.3 0 320 0zM280 224h-48c-13.25 0-24 10.74-24 24v48c0 13.25 10.75 24 24 24h48c13.25 0 24-10.75 24-24v-48C304 234.7 293.3 224 280 224zM272 288h-32V256h32V288z"/></svg>
